packages/icons/src/shopping-cart-fill.svg

<svg width="24" height="24" viewBox="0 0 24 24" fill="none" xmlns="http://www.w3.org/2000/svg">
<path d="M15.9815 22C16.5315 22 17.0024 21.8042 17.394 21.4125C17.7857 21.0208 17.9815 20.55 17.9815 20C17.9815 19.45 17.7857 18.9792 17.394 18.5875C17.0024 18.1958 16.5315 18 15.9815 18C15.4315 18 14.9607 18.1958 14.569 18.5875C14.1774 18.9792 13.9815 19.45 13.9815 20C13.9815 20.55 14.1774 21.0208 14.569 21.4125C14.9607 21.8042 15.4315 22 15.9815 22Z" fill="black"/>
<path d="M5.98152 22C6.53152 22 7.00235 21.8042 7.39402 21.4125C7.78569 21.0208 7.98152 20.55 7.98152 20C7.98152 19.45 7.78569 18.9792 7.39402 18.5875C7.00235 18.1958 6.53152 18 5.98152 18C5.43152 18 4.96069 18.1958 4.56902 18.5875C4.17736 18.9792 3.98152 19.45 3.98152 20C3.98152 20.55 4.17736 21.0208 4.56902 21.4125C4.96069 21.8042 5.43152 22 5.98152 22Z" fill="black"/>
<path fill-rule="evenodd" clip-rule="evenodd" d="M17.7815 4H3.03152C2.64819 4 2.35652 4.17083 2.15652 4.5125C1.95652 4.85417 1.94819 5.2 2.13152 5.55L5.68152 11.95C5.86485 12.2833 6.11069 12.5417 6.41902 12.725C6.72736 12.9083 7.06486 13 7.43152 13H14.8815L15.9815 15H3.98152V17H15.9815C16.7315 17 17.2982 16.6708 17.6815 16.0125C18.0649 15.3542 18.0815 14.7 17.7315 14.05L16.3815 11.6L19.9815 4H22V2L18.7315 2L17.7815 4Z" fill="black"/>
</svg>

<svg xmlns="http://www.w3.org/2000/svg" width="24" height="24" fill="none" viewBox="0 0 24 24">
  <path fill="#000" d="M15.982 22c.55 0 1.02-.196 1.412-.587.392-.392.588-.863.588-1.413s-.196-1.02-.588-1.413A1.926 1.926 0 0 0 15.982 18a1.93 1.93 0 0 0-1.413.587A1.926 1.926 0 0 0 13.981 20c0 .55.196 1.02.588 1.413.392.391.862.587 1.412.587Zm-10 0c.55 0 1.02-.196 1.412-.587.392-.392.588-.863.588-1.413s-.196-1.02-.588-1.413A1.926 1.926 0 0 0 5.982 18a1.93 1.93 0 0 0-1.413.587A1.926 1.926 0 0 0 3.982 20c0 .55.195 1.02.587 1.413A1.93 1.93 0 0 0 5.982 22Z"/>
  <path fill="#000" fill-rule="evenodd" d="M17.782 4H3.032c-.384 0-.675.17-.875.513-.2.341-.209.687-.025 1.037l3.55 6.4c.183.333.429.592.737.775.308.183.646.275 1.013.275h7.45l1.1 2h-12v2h12c.75 0 1.316-.33 1.7-.988.383-.658.4-1.312.05-1.962l-1.35-2.45 3.6-7.6H22V2h-3.268l-.95 2Z" clip-rule="evenodd"/>
</svg>
